X:4
T:Ingen kan dansa polska som min Ann-Sofi
T:Polska efter Pelle Fors
R:sl\"angpolska
H:Variant 2 efter Anders Fredrik Andersson, Tryserum.
H:Jfr #76 (delarna i omv\"and ordning).
H:Pelle Fors (Petter Magnus Johansson) var f\"odd i Ukna, Sm{\aa}land, 1815,
H:men levde st\"orre delen av sitt liv i R\"on\"o, Vikbolandet,
H:\"Osterg\"otland. Han dog d\"ar 1908. Han l\"arde sig spela fiol
H:av Johannes L{\aa}ng fr{\aa}n L{\aa}ngserum, som i sin tur hade l\"art sig av
H:Klockare S\"oderlund fr{\aa}n Yxnerum. Pelle Fors var skomakare och
H:fiolspelare, och spelade p{\aa} br\"ollop och danser.
A:\"Osterg\"otland, Sm{\aa}land
Z:id:hn-sp-4
M:3/4
L:1/16
K:Dm
f2(3gfe f2a2 c'2a2 | a2e2 f2gf e2c2 | c2eg ag^fg abag |
f2d2 d^ce^c A4 :| A2d2 d2ed ^cAce | e2f2 f2gf e=ceg | 
g2a2 afdf abag |[M:4/4] e2fe d2ed ^c2A2 A4 |
[M:3/4] A2d2 d2ed ^cAce | e2f2 f2gf e=ceg | g2a2 afdf abag |
e2fe d^ce^c d4 ||
P:variant 2
|: f4 f2a2 c'3a | a2af gfef e4 | e2g2 g2a2 a2f2 | d2d2 ed^cd A4 :|
|: A2d2 d2ed ^c2e2 | e2e2 f2gf e2gf | e2g2 g2a2 a2g2 |
[M:4/4] g2ag e2fe d2ed ^c2A2 | [M:3/4] A2d2 d2ed ^c2e2 |
e2e2 f2gf e2gf | e2g2 g2a2 a2g2 | [M:4/4] g2ag e2fe d4 d4 :|
<end>
<start>
